src/assets/icons/payview/car-bodytype-van.svg

<svg width="18" height="12" viewBox="0 0 18 12" fill="none" xmlns="http://www.w3.org/2000/svg">
<mask id="mask0_8251_6234" style="mask-type:alpha" maskUnits="userSpaceOnUse" x="0" y="0" width="18" height="12">
<path fill-rule="evenodd" clip-rule="evenodd" d="M9 11.5314H18V0H9H0V11.5314H9Z" fill="white"/>
</mask>
<g mask="url(#mask0_8251_6234)">
<path fill-rule="evenodd" clip-rule="evenodd" d="M7.79452 1.12541H16.2732C16.6051 1.12541 16.8751 1.39541 16.8751 1.72729V6.75048H16.3126C16.0015 6.75048 15.7501 7.00248 15.7501 7.31298C15.7501 7.62349 16.0015 7.87549 16.3126 7.87549H16.8751V8.96113C16.8751 9.29301 16.6051 9.56301 16.2732 9.56301H15.4401C15.3051 8.7665 14.6155 8.15675 13.7813 8.15675C12.9465 8.15675 12.2569 8.7665 12.1219 9.56301H5.31499C5.17998 8.7665 4.49035 8.15675 3.65615 8.15675C2.82139 8.15675 2.13176 8.7665 1.99676 9.56301H1.72619C1.39487 9.56301 1.12487 9.29301 1.12487 8.96113V6.41354C1.12487 6.16603 1.27337 5.94666 1.50288 5.85497L3.3614 5.11133C3.39459 5.0984 3.42271 5.07815 3.45478 5.06296H6.74994C7.06045 5.06296 7.31245 4.81095 7.31245 4.50045C7.31245 4.18995 7.06045 3.93794 6.74994 3.93794H4.73279L7.3687 1.30147C7.48064 1.18953 7.63589 1.12541 7.79452 1.12541ZM13.7822 10.4065C13.4717 10.4065 13.2197 10.154 13.2197 9.84404C13.2197 9.5341 13.4717 9.28153 13.7822 9.28153C14.0921 9.28153 14.3447 9.5341 14.3447 9.84404C14.3447 10.154 14.0921 10.4065 13.7822 10.4065ZM3.65617 10.4065C3.34567 10.4065 3.09366 10.154 3.09366 9.84404C3.09366 9.5341 3.34567 9.28153 3.65617 9.28153C3.96611 9.28153 4.21868 9.5341 4.21868 9.84404C4.21868 10.154 3.96611 10.4065 3.65617 10.4065ZM3.1461 3.93361C3.08816 3.99155 3.0201 4.03599 2.9436 4.06636L1.08508 4.81C0.425818 5.07381 0 5.70326 0 6.41314V8.96074C0 9.91306 0.774572 10.6876 1.72633 10.6876H2.20334C2.49584 11.1894 3.03416 11.5314 3.6563 11.5314C4.27787 11.5314 4.81618 11.1894 5.10869 10.6876H12.3285C12.621 11.1894 13.1593 11.5314 13.7814 11.5314C14.403 11.5314 14.9413 11.1894 15.2338 10.6876H16.2733C17.2257 10.6876 18.0002 9.91306 18.0002 8.96074V1.7269C18.0002 0.774572 17.2257 0 16.2733 0H7.79466C7.34015 0 6.89465 0.184502 6.57346 0.505694L3.1461 3.93361Z" fill="#253238"/>
</g>
</svg>

<svg width="18" height="12" fill="none" xmlns="http://www.w3.org/2000/svg"><mask id="a" style="mask-type:alpha" maskUnits="userSpaceOnUse" x="0" y="0" width="18" height="12"><path fill-rule="evenodd" clip-rule="evenodd" d="M9 11.531h9V0H0v11.531h9Z" fill="#fff"/></mask><g mask="url(#a)"><path fill-rule="evenodd" clip-rule="evenodd" d="M7.795 1.125h8.478c.332 0 .602.27.602.602V6.75h-.562a.562.562 0 1 0 0 1.125h.562v1.086c0 .332-.27.602-.602.602h-.833a1.686 1.686 0 0 0-1.659-1.406c-.835 0-1.524.61-1.66 1.406H5.316a1.686 1.686 0 0 0-1.659-1.406c-.835 0-1.524.61-1.66 1.406h-.27a.602.602 0 0 1-.601-.602V6.414c0-.248.148-.467.378-.559l1.858-.744c.034-.013.062-.033.094-.048H6.75a.563.563 0 0 0 0-1.125H4.733L7.369 1.3a.606.606 0 0 1 .426-.176Zm5.987 9.281a.563.563 0 1 1 .001-1.126.563.563 0 0 1 0 1.127Zm-10.126 0a.563.563 0 1 1 .001-1.126.563.563 0 0 1 0 1.127Zm-.51-6.472a.594.594 0 0 1-.202.132l-1.859.744A1.719 1.719 0 0 0 0 6.413v2.548c0 .952.775 1.727 1.726 1.727h.477c.293.501.831.843 1.453.843.622 0 1.16-.342 1.453-.843h7.22c.292.501.83.843 1.452.843s1.16-.342 1.453-.843h1.04c.952 0 1.726-.775 1.726-1.727V1.727C18 .775 17.226 0 16.273 0H7.795c-.455 0-.9.185-1.222.506L3.146 3.934Z" fill="#253238"/></g></svg>
